packages/ffe-icons/icons/open/300/sm/route.svg

<svg xmlns="http://www.w3.org/2000/svg" height="20" viewBox="0 -960 960 960" width="20"><path d="M372-154.001q-56.154 0-95.076-39.097-38.923-39.098-38.923-94.475v-300.351q-37-12-60.5-42.076-23.5-30.077-23.5-65.869 0-45.888 32.57-78.009t77.884-32.121q45.314 0 77.429 32.121t32.115 78.009q0 37.792-24 66.869-24 29.076-60 40.076v300.983q0 33.801 24.172 57.871 24.172 24.071 58.116 24.071t57.829-24.088q23.885-24.088 23.885-57.913v-384q0-56.154 38.923-95.076 38.922-38.923 95.076-38.923 56.154 0 95.076 38.923 38.923 38.922 38.923 95.076v300.924q36 11 60 40.076 24 29.077 24 66.869 0 45.888-32.07 78.009t-77.884 32.121q-44.814 0-77.429-32.121t-32.615-78.009q0-34.792 24-65.869 24-31.076 60-41.851v-300.52q0-33.754-24.172-57.692-24.173-23.938-58.116-23.938-33.944 0-57.829 24.088-23.885 24.088-23.885 57.913v384q0 56.154-38.923 95.076-38.922 38.923-95.076 38.923ZM264-637.999q24.246 0 41.124-16.877 16.877-16.878 16.877-41.124 0-24.246-16.877-41.124-16.878-16.877-41.124-16.877-24.246 0-41.124 16.877-16.877 16.878-16.877 41.124 0 24.246 16.877 41.124 16.878 16.877 41.124 16.877Zm432 432q24.246 0 41.124-16.877 16.877-16.878 16.877-41.124 0-24.246-16.877-41.124-16.878-16.877-41.124-16.877-24.246 0-41.124 16.877-16.877 16.878-16.877 41.124 0 24.246 16.877 41.124 16.878 16.877 41.124 16.877ZM264-696Zm432 432Z"/></svg>

<svg xmlns="http://www.w3.org/2000/svg" height="20" viewBox="0 -960 960 960" width="20"><path d="M372-154q-56.15 0-95.08-39.1Q238-232.2 238-287.57v-300.35q-37-12-60.5-42.08T154-695.87q0-45.89 32.57-78.01Q219.14-806 264.45-806q45.32 0 77.43 32.12Q374-741.76 374-695.87q0 37.79-24 66.87-24 29.08-60 40.08v300.98q0 33.8 24.17 57.87T372.29-206q33.94 0 57.83-24.09Q454-254.17 454-288v-384q0-56.15 38.92-95.08Q531.85-806 588-806t95.08 38.92Q722-728.15 722-672v300.92q36 11 60 40.08t24 66.87q0 45.89-32.07 78.01Q741.86-154 696.05-154q-44.82 0-77.43-32.12Q586-218.24 586-264.13q0-34.79 24-65.87 24-31.08 60-41.85v-300.52q0-33.76-24.17-57.69Q621.66-754 587.71-754q-33.94 0-57.83 24.09Q506-705.83 506-672v384q0 56.15-38.92 95.08Q428.15-154 372-154ZM264-638q24.25 0 41.12-16.88Q322-671.75 322-696q0-24.25-16.88-41.12Q288.25-754 264-754q-24.25 0-41.12 16.88Q206-720.25 206-696q0 24.25 16.88 41.12Q239.75-638 264-638Zm432 432q24.25 0 41.12-16.88Q754-239.75 754-264q0-24.25-16.88-41.12Q720.25-322 696-322q-24.25 0-41.12 16.88Q638-288.25 638-264q0 24.25 16.88 41.12Q671.75-206 696-206ZM264-696Zm432 432Z"/></svg>
